assets/add_note.svg

<svg fill="none" height="16" viewBox="0 0 16 16" width="16" xmlns="http://www.w3.org/2000/svg"><path d="m10.4156.968999-8.57926 8.585801c-.20263.20277-.3377.4507-.42788.7212l-1.3735746 4.7098c-.0900022.2704-.0000002.5634.2026226.7888.1577.1578.360318.2254.562941.2254.067541 0 .157699 0 .225241-.0225l4.70619-1.3746c.27016-.0901.51786-.2254.72064-.4282l8.60178-8.60834c.608-.60848.9457-1.44223.9457-2.32109 0-.87887-.3377-1.69012-.9457-2.321099-1.2836-1.239621-3.3552-1.239621-4.6387.044957zm-4.57112 11.582901-2.38683-2.3886 6.53011-6.53514 2.38704 2.38849zm-3.17487-.969 1.75638 1.7577-2.47703.7212zm11.25879-7.12107-.4278.42804-2.3869-2.38866.4279-.4282c.3377-.33796.7656-.49577 1.1934-.49577.4279 0 .8557.15782 1.1935.49577.6529.67608.6529 1.73522 0 2.38882z" fill="#191919"/></svg>

<svg width="16" height="16" viewBox="0 0 16 16" fill="none" xmlns="http://www.w3.org/2000/svg">
<path d="M10.4156 0.968999L1.83634 9.5548C1.63371 9.75757 1.49864 10.0055 1.40846 10.276L0.0348854 14.9858C-0.0551168 15.2562 0.0348852 15.5492 0.237508 15.7746C0.395208 15.9324 0.597826 16 0.800449 16C0.86799 16 0.958148 16 1.02569 15.9775L5.73188 14.6029C6.00204 14.5128 6.24974 14.3775 6.45252 14.1747L15.0543 5.56636C15.6623 4.95788 16 4.12413 16 3.24527C16 2.3664 15.6623 1.55515 15.0543 0.924171C13.7707 -0.31545 11.6991 -0.31545 10.4156 0.969128L10.4156 0.968999ZM5.84448 12.5519L3.45765 10.1633L9.98776 3.62816L12.3748 6.01665L5.84448 12.5519ZM2.66961 11.5829L4.42599 13.3406L1.94896 14.0618L2.66961 11.5829ZM13.9284 4.46183L13.5006 4.88987L11.1137 2.50121L11.5416 2.07301C11.8793 1.73505 12.3072 1.57724 12.735 1.57724C13.1629 1.57724 13.5907 1.73506 13.9285 2.07301C14.5814 2.74909 14.5814 3.80823 13.9285 4.46183H13.9284Z" fill="#191919"/>
</svg>
